img/parceiros/lescone.svg

<svg width="208" height="41" viewBox="0 0 208 41" fill="none" xmlns="http://www.w3.org/2000/svg">
<g clip-path="url(#clip0_17_258)">
<path fill-rule="evenodd" clip-rule="evenodd" d="M13.945 36.1229C13.8121 36.1217 13.6813 36.09 13.5626 36.0304C13.4438 35.9708 13.3403 35.8847 13.26 35.7789C13.0319 35.4756 12.8778 35.1233 12.81 34.7499C12.7016 34.2746 12.6181 33.7939 12.56 33.3099C12.4909 32.6866 12.4555 32.06 12.454 31.4329C12.4334 30.0549 12.4381 28.6767 12.468 27.2989C12.486 26.4529 12.494 25.7929 12.494 25.3169V9.56489C12.494 8.78889 12.499 8.19889 12.508 7.79389C12.517 7.38889 12.548 6.93089 12.599 6.41989C12.629 6.03989 12.695 5.66389 12.798 5.29689C12.898 5.01389 13.031 4.74389 13.193 4.49089C13.343 4.22589 13.561 4.00689 13.826 3.85689C14.134 3.70289 14.451 3.56689 14.775 3.44689C15.1925 3.29171 15.6252 3.18109 16.066 3.11689C16.6403 3.03305 17.2165 2.96237 17.794 2.90489V1.44989L17.344 0.999894H1.422L1 1.44989V2.69189C3.672 2.85089 5.166 3.60889 5.482 4.96489C5.666 6.10989 5.754 7.26789 5.746 8.42689V32.5539C5.79021 33.8071 5.73705 35.0619 5.587 36.3069C5.514 36.5009 5.407 36.6789 5.271 36.8349C5.06737 37.0784 4.85212 37.3121 4.626 37.5349C4.44685 37.708 4.27535 37.8888 4.112 38.0769V39.0019C17.699 39.0019 26.109 39.0899 29.342 39.2669L30.477 35.4349L29.765 34.9319C24.515 35.5929 19.235 35.9899 13.946 36.1219H13.945V36.1229ZM39.201 25.0769C39.1494 25.0913 39.0965 25.1001 39.043 25.1029C38.78 25.1029 38.648 25.0069 38.648 24.8129C38.649 23.9369 38.715 23.0619 38.846 22.1959C38.994 21.2519 39.241 20.3259 39.584 19.4349C39.9145 18.5315 40.3678 17.6778 40.931 16.8979C41.5279 16.1045 42.3031 15.4626 43.1939 15.0242C44.0847 14.5857 45.0662 14.363 46.059 14.3739C46.7755 14.3341 47.4899 14.4814 48.1323 14.8012C48.7747 15.121 49.3228 15.6023 49.723 16.1979C50.5542 17.4297 50.987 18.8871 50.963 20.3729C50.9595 20.6453 50.873 20.9101 50.715 21.132C50.5571 21.3539 50.3352 21.5224 50.079 21.6149C48.6353 22.1967 47.1612 22.6997 45.663 23.1219C43.5559 23.7419 41.4558 24.3853 39.363 25.0519C39.3082 25.0542 39.2539 25.0626 39.201 25.0769ZM54.861 33.3219C51.696 35.2419 48.963 36.2019 46.663 36.2019C45.1049 36.2357 43.5749 35.7831 42.286 34.9069C41.087 34.1023 40.1336 32.9821 39.531 31.6699C38.9377 30.354 38.6364 28.9253 38.648 27.4819C50.143 23.9059 55.943 22.1169 56.048 22.1169C56.5045 22.0235 56.9124 21.7696 57.1977 21.4011C57.483 21.0327 57.6268 20.5742 57.603 20.1089C57.6343 18.8116 57.3301 17.5282 56.72 16.3829C56.1628 15.3585 55.3382 14.5045 54.334 13.9119C53.3208 13.3172 52.2229 12.8805 51.078 12.6169C49.8362 12.3357 48.5662 12.1982 47.293 12.2069C45.009 12.1715 42.744 12.6267 40.651 13.5419C38.8056 14.339 37.1751 15.5617 35.893 17.1099C34.6842 18.6069 33.7513 20.3071 33.138 22.1309C32.502 24.0075 32.181 25.9764 32.188 27.9579C32.188 32.0279 33.288 35.0759 35.484 37.1019C37.47 38.9519 40.274 39.8759 43.894 39.8759C45.9696 39.8546 48.0126 39.3575 49.866 38.4229C52.0979 37.3113 54.2359 36.0204 56.259 34.5629L55.682 33.5349L54.862 33.3219H54.861ZM90.37 5.45689C89.6636 3.61168 88.2763 2.10772 86.494 1.25489C84.2862 0.326042 81.9014 -0.106812 79.508 -0.0131064C77.7614 -0.0231252 76.0206 0.189931 74.328 0.620894C72.7535 1.0218 71.2504 1.66372 69.872 2.52389C68.5219 3.37504 67.4177 4.56436 66.669 5.97389C65.8563 7.51566 65.4479 9.23837 65.482 10.9809C65.4811 12.2282 65.7842 13.457 66.365 14.5609C66.9198 15.6534 67.6706 16.6347 68.58 17.4559C69.558 18.3185 70.5974 19.1089 71.69 19.8209C72.7867 20.5516 73.9223 21.2219 75.092 21.8289C76.1916 22.3941 77.2731 22.9937 78.335 23.6269C79.215 24.1249 80.041 24.7139 80.8 25.3839C82.75 27.1989 83.726 28.9249 83.726 30.5639C83.7224 31.4345 83.5404 32.2951 83.1913 33.0927C82.8421 33.8902 82.3332 34.6077 81.696 35.2009C81.0634 35.852 80.3046 36.3672 79.466 36.7149C78.6274 37.0626 77.7267 37.2354 76.819 37.2229C75.7576 37.2534 74.7033 37.0406 73.7369 36.6009C72.7704 36.1611 71.9173 35.5061 71.243 34.6859C69.8437 33.0835 69.0796 31.0242 69.095 28.8969L68.068 28.5269L62.822 34.4199C64.0209 36.1551 65.6464 37.5522 67.542 38.4769C69.4694 39.4225 71.5902 39.9069 73.737 39.8919C75.6958 39.882 77.6421 39.5787 79.511 38.9919C81.3905 38.4261 83.1827 37.6033 84.837 36.5469C86.4096 35.5426 87.7451 34.2085 88.751 32.6369C89.7369 31.1425 90.2639 29.3922 90.267 27.6019C90.2749 26.6411 90.1054 25.6871 89.767 24.7879C89.454 23.9528 89.0185 23.1689 88.475 22.4619C87.8352 21.677 87.0948 20.9796 86.273 20.3879C85.3751 19.7107 84.4374 19.088 83.465 18.5229C82.3011 17.8597 81.1235 17.2209 79.933 16.6069C79.1029 16.2045 78.2852 15.777 77.481 15.3249C76.7205 14.8804 75.9804 14.402 75.263 13.8909C74.5275 13.3867 73.8553 12.7958 73.261 12.1309C72.7387 11.5104 72.312 10.8154 71.995 10.0689C71.6431 9.26505 71.4636 8.39638 71.468 7.51889C71.4518 6.80124 71.5797 6.08763 71.8443 5.42031C72.1088 4.75299 72.5045 4.14553 73.008 3.63389C73.5401 3.10204 74.1769 2.68653 74.8781 2.41369C75.5792 2.14085 76.3293 2.01662 77.081 2.04889C78.0121 2.00868 78.9405 2.17494 79.7997 2.53576C80.659 2.89657 81.4278 3.44301 82.051 4.13589C83.2997 5.5492 84.0863 7.31068 84.305 9.18389L85.228 9.47389L90.37 5.45689ZM116.008 15.5919C115.537 14.7671 114.855 14.0829 114.031 13.6099C113.216 13.1441 112.336 12.8014 111.421 12.5929C110.439 12.3751 109.435 12.2687 108.429 12.2759C106.51 12.2489 104.602 12.5759 102.8 13.2409C101.254 13.8022 99.8378 14.6695 98.635 15.7909C97.5172 16.8738 96.5902 18.1375 95.893 19.5289C95.1763 20.9286 94.6487 22.4173 94.324 23.9559C94.0037 25.5121 93.8449 27.0971 93.85 28.6859C93.844 30.0359 94.035 31.3799 94.416 32.6739C94.786 33.9269 95.361 35.1099 96.116 36.1759C96.9121 37.2754 97.9799 38.1496 99.215 38.7129C100.633 39.3609 102.178 39.6819 103.736 39.6509C108.675 39.6509 113.315 37.4749 117.656 33.1239L117.129 32.3569L116.47 32.1989C113.254 34.6829 110.283 35.9249 107.559 35.9249C106.539 35.9413 105.531 35.71 104.62 35.2509C103.794 34.841 103.076 34.2442 102.521 33.5079C101.97 32.751 101.522 31.9245 101.189 31.0499C100.843 30.1766 100.591 29.2687 100.438 28.3419C100.298 27.4679 100.228 26.5839 100.227 25.6989C100.233 24.5739 100.33 23.4519 100.517 22.3429C100.724 21.1079 101.033 19.8929 101.44 18.7089C101.81 17.5518 102.452 16.5003 103.312 15.6429C103.691 15.2592 104.142 14.9551 104.64 14.7487C105.139 14.5423 105.673 14.4376 106.212 14.4409C106.932 14.4012 107.65 14.5632 108.283 14.9088C108.916 15.2543 109.441 15.7697 109.797 16.3969C110.612 17.8656 111.013 19.5281 110.957 21.2069L111.88 21.5769L116.863 18.6179C116.822 17.5557 116.529 16.5185 116.008 15.5919ZM125.671 23.4539C125.805 22.4159 126.039 21.3939 126.37 20.4019C126.673 19.4369 127.103 18.5179 127.648 17.6669C128.172 16.8786 128.872 16.2227 129.692 15.7509C130.577 15.2401 131.584 14.9798 132.605 14.9979C133.713 14.9697 134.806 15.2583 135.755 15.8299C136.637 16.3792 137.346 17.1673 137.798 18.1029C138.275 19.0699 138.62 20.0959 138.825 21.1549C139.042 22.2949 139.149 23.4549 139.142 24.6169C139.142 25.6739 139.133 26.5549 139.115 27.2589C139.087 28.107 139.026 28.9536 138.931 29.7969C138.853 30.6269 138.708 31.4479 138.496 32.2539C138.289 32.9639 138.02 33.6539 137.692 34.3159C137.39 34.9712 136.954 35.5561 136.413 36.0329C135.854 36.4894 135.221 36.8469 134.541 37.0899C133.717 37.3848 132.846 37.5281 131.971 37.5129C131.007 37.5247 130.063 37.2383 129.268 36.6929C128.493 36.1734 127.848 35.4818 127.384 34.6719C126.897 33.8003 126.516 32.8733 126.25 31.9109C125.97 30.9638 125.767 29.9957 125.643 29.0159C125.541 28.1697 125.488 27.3182 125.485 26.4659C125.484 25.459 125.547 24.4531 125.671 23.4539ZM122.402 37.1169C124.317 38.8609 127.358 39.7329 131.524 39.7329C133.064 39.7429 134.6 39.5659 136.098 39.2039C137.507 38.8536 138.85 38.2782 140.076 37.4999C141.308 36.7226 142.385 35.7233 143.253 34.5529C144.202 33.2258 144.907 31.7402 145.336 30.1659C145.868 28.2567 146.125 26.2816 146.101 24.2999C146.152 22.7043 145.856 21.1167 145.232 19.6473C144.608 18.1778 143.672 16.8615 142.489 15.7899C140.291 13.8179 137.101 12.8309 132.919 12.8309C128.736 12.8309 125.291 14.1259 122.584 16.7159C121.255 17.972 120.206 19.4946 119.507 21.1842C118.807 22.8737 118.472 24.692 118.524 26.5199C118.524 31.2419 119.815 34.7739 122.399 37.1169H122.402ZM163.66 16.1869C165.066 16.1869 166.068 16.4689 166.666 17.0329C167.223 17.7129 167.575 18.5389 167.68 19.4129C167.901 20.4429 168.038 21.4909 168.089 22.5439C168.124 23.4689 168.142 24.6629 168.142 26.1249C168.141 28.0233 168.128 29.9217 168.103 31.8199C168.094 32.3919 168.098 33.0659 168.115 33.8419C168.12 34.4199 168.155 34.9979 168.221 35.5719C168.274 35.9519 168.344 36.3659 168.432 36.8139C168.493 37.1899 168.618 37.5509 168.801 37.8839C168.959 38.1489 169.153 38.3899 169.379 38.5989C170.17 39.3166 171.211 39.6957 172.278 39.6549C173.597 39.6549 175.108 38.9849 176.813 37.6469C178.236 36.4635 179.591 35.2015 180.873 33.8669L180.267 32.9669H179.634C178.603 33.7941 177.342 34.2833 176.023 34.3679C175.744 34.3839 175.464 34.343 175.201 34.2476C174.938 34.1522 174.697 34.0043 174.493 33.8129C174.311 33.669 174.155 33.4952 174.031 33.2989C173.886 32.9532 173.793 32.5879 173.755 32.2149C173.654 31.4573 173.61 30.6931 173.623 29.9289C173.623 29.3479 173.654 28.4089 173.715 27.1149C173.764 26.1949 173.795 25.2741 173.808 24.3529V22.7669C173.825 21.0579 173.821 19.8739 173.795 19.2119C173.742 18.3087 173.641 17.4091 173.491 16.5169C173.425 15.6757 173.144 14.8656 172.674 14.1649C172.21 13.6614 171.655 13.2494 171.039 12.9499C170.202 12.545 169.279 12.3497 168.35 12.3809C165.257 12.3809 161.671 13.6499 157.594 16.1869L156.961 15.9489C156.927 14.9772 156.611 14.0363 156.052 13.2409C155.533 12.5609 154.641 12.2229 153.376 12.2229C152.618 12.2324 151.866 12.3617 151.148 12.6059C150.313 12.8859 149.516 13.2679 148.774 13.7419C147.974 14.2449 147.28 14.7119 146.691 15.1429C146.102 15.5739 145.421 16.0979 144.648 16.7149L145.623 18.0099C145.802 17.8939 145.983 17.7796 146.164 17.6669C146.471 17.4729 146.739 17.3149 146.968 17.1909C147.196 17.0679 147.469 16.9229 147.785 16.7549C148.068 16.6009 148.364 16.4719 148.669 16.3689C148.902 16.2889 149.146 16.2439 149.393 16.2369C149.698 16.2299 149.999 16.3069 150.263 16.4619C150.531 16.6389 150.733 16.8989 150.841 17.2019C150.973 17.5219 151.087 17.8469 151.183 18.1789C151.291 18.6259 151.353 19.0819 151.368 19.5409C151.404 20.1409 151.425 20.6249 151.432 20.9939C151.44 21.3629 151.444 21.9179 151.445 22.6589V23.1089C151.445 24.8349 151.313 30.1199 151.05 38.9639L151.709 39.3339L157.641 37.6159C157.465 36.8589 157.333 34.4719 157.245 30.4559C157.158 26.5275 157.115 22.5983 157.117 18.6689C160.175 17.0129 162.354 16.1849 163.655 16.1849L163.66 16.1869ZM189.233 25.1969C189.182 25.2122 189.129 25.2216 189.075 25.2249C188.812 25.2249 188.68 25.1279 188.679 24.9349C188.68 24.0579 188.746 23.1839 188.878 22.3179C189.026 21.3739 189.273 20.4479 189.615 19.5559C189.946 18.6529 190.398 17.7989 190.96 17.0189C191.557 16.2253 192.332 15.5832 193.223 15.1447C194.114 14.7063 195.095 14.4836 196.088 14.4949C196.804 14.455 197.519 14.6022 198.161 14.922C198.804 15.2418 199.352 15.7232 199.752 16.3189C200.583 17.5506 201.016 19.0081 200.991 20.4939C200.987 20.766 200.901 21.0306 200.743 21.2524C200.585 21.4742 200.364 21.6428 200.108 21.7359C198.665 22.3174 197.191 22.8204 195.693 23.2429C193.586 23.8628 191.485 24.5062 189.392 25.1729C189.339 25.1758 189.286 25.1842 189.234 25.1979H189.233V25.1969ZM204.893 33.4429C201.728 35.3639 198.995 36.3239 196.694 36.3229C195.136 36.3565 193.606 35.9042 192.317 35.0289C191.118 34.224 190.165 33.1039 189.563 31.7919C188.969 30.4755 188.668 29.046 188.679 27.6019C200.174 24.0269 205.974 22.2389 206.08 22.2389C206.536 22.1451 206.944 21.8909 207.23 21.5224C207.515 21.1538 207.659 20.6953 207.635 20.2299C207.666 18.9326 207.362 17.6492 206.752 16.5039C206.195 15.4795 205.37 14.6256 204.366 14.0329C203.353 13.4384 202.255 13.0018 201.11 12.7379C199.868 12.4566 198.598 12.3191 197.324 12.3279C195.041 12.2927 192.776 12.7479 190.684 13.6629C188.839 14.4599 187.208 15.6826 185.926 17.2309C184.717 18.7277 183.784 20.4279 183.171 22.2519C182.535 24.1284 182.214 26.0975 182.222 28.0789C182.222 32.1489 183.32 35.1959 185.517 37.2229C187.503 39.0729 190.306 39.9969 193.927 39.9969C196.003 39.9755 198.046 39.4785 199.899 38.5439C202.131 37.4321 204.269 36.1415 206.292 34.6849L205.715 33.6559L204.893 33.4429Z" fill="#9C9C9C"/>
</g>
<defs>
<clipPath id="clip0_17_258">
<rect width="208" height="41" fill="white"/>
</clipPath>
</defs>
</svg>

<svg width="208" height="41" fill="none" xmlns="http://www.w3.org/2000/svg"><g clip-path="url(#a)"><path fill-rule="evenodd" clip-rule="evenodd" d="M13.945 36.123a.87.87 0 0 1-.685-.344 2.436 2.436 0 0 1-.45-1.03 13.958 13.958 0 0 1-.25-1.44c-.07-.622-.104-1.249-.106-1.876-.02-1.378-.016-2.756.014-4.134.018-.846.026-1.506.026-1.982V9.565c0-.776.005-1.366.014-1.771.009-.405.04-.863.091-1.374.03-.38.096-.756.199-1.123.1-.283.233-.553.395-.806.15-.265.368-.484.633-.634.308-.154.625-.29.949-.41a6.32 6.32 0 0 1 1.291-.33c.574-.084 1.15-.155 1.728-.212V1.45l-.45-.45H1.422L1 1.45v1.242c2.672.159 4.166.917 4.482 2.273a20.91 20.91 0 0 1 .264 3.462v24.127a24.227 24.227 0 0 1-.159 3.753 1.73 1.73 0 0 1-.316.528 9.886 9.886 0 0 1-.645.7c-.18.173-.35.354-.514.542v.925c13.587 0 21.997.088 25.23.265l1.135-3.832-.712-.503c-5.25.66-10.53 1.058-15.819 1.19h-.001Zm25.256-11.046a.73.73 0 0 1-.158.026c-.263 0-.395-.096-.395-.29.001-.876.067-1.751.198-2.617.148-.944.395-1.87.738-2.761a10.49 10.49 0 0 1 1.347-2.537 6.33 6.33 0 0 1 5.128-2.524 4.137 4.137 0 0 1 3.664 1.824 7.255 7.255 0 0 1 1.24 4.175 1.338 1.338 0 0 1-.884 1.242 43.064 43.064 0 0 1-4.416 1.507c-2.107.62-4.207 1.263-6.3 1.93a.74.74 0 0 0-.162.025Zm15.66 8.245c-3.165 1.92-5.898 2.88-8.198 2.88a7.496 7.496 0 0 1-4.377-1.295 7.837 7.837 0 0 1-2.755-3.237 9.994 9.994 0 0 1-.883-4.188c11.495-3.576 17.295-5.365 17.4-5.365a1.948 1.948 0 0 0 1.555-2.008 7.538 7.538 0 0 0-.883-3.726 6.445 6.445 0 0 0-2.386-2.471 11.553 11.553 0 0 0-3.256-1.295 16.624 16.624 0 0 0-3.785-.41 15.961 15.961 0 0 0-6.642 1.335 12.734 12.734 0 0 0-4.758 3.568 16.223 16.223 0 0 0-2.755 5.02 17.956 17.956 0 0 0-.95 5.828c0 4.07 1.1 7.118 3.296 9.144 1.986 1.85 4.79 2.774 8.41 2.774a13.573 13.573 0 0 0 5.972-1.453 46.087 46.087 0 0 0 6.393-3.86l-.577-1.028-.82-.213h-.001ZM90.37 5.457a7.717 7.717 0 0 0-3.876-4.202 16.364 16.364 0 0 0-6.986-1.268 20.517 20.517 0 0 0-5.18.634 15.765 15.765 0 0 0-4.456 1.903 9.156 9.156 0 0 0-3.203 3.45 10.305 10.305 0 0 0-1.187 5.007c0 1.247.302 2.476.883 3.58a10.004 10.004 0 0 0 2.215 2.895 26.924 26.924 0 0 0 3.11 2.365 36.243 36.243 0 0 0 3.402 2.008c1.1.565 2.181 1.165 3.243 1.798.88.498 1.706 1.087 2.465 1.757 1.95 1.815 2.926 3.54 2.926 5.18a6.372 6.372 0 0 1-2.03 4.637 6.672 6.672 0 0 1-4.877 2.022 6.96 6.96 0 0 1-5.576-2.537 8.705 8.705 0 0 1-2.148-5.79l-1.027-.37-5.246 5.894a12.282 12.282 0 0 0 4.72 4.057 13.845 13.845 0 0 0 6.195 1.415 19.606 19.606 0 0 0 5.774-.9 21.309 21.309 0 0 0 5.326-2.445 12.874 12.874 0 0 0 3.914-3.91 9.172 9.172 0 0 0 1.516-5.035 7.807 7.807 0 0 0-.5-2.814 8.998 8.998 0 0 0-1.292-2.326 11.541 11.541 0 0 0-2.202-2.074 28.166 28.166 0 0 0-2.808-1.865 96.238 96.238 0 0 0-3.532-1.916c-.83-.402-1.648-.83-2.452-1.282-.76-.445-1.5-.923-2.218-1.434a11.112 11.112 0 0 1-2.002-1.76 8.147 8.147 0 0 1-1.266-2.062 6.28 6.28 0 0 1-.527-2.55 5.365 5.365 0 0 1 1.54-3.885 5.431 5.431 0 0 1 4.073-1.585 6.318 6.318 0 0 1 4.97 2.087 9.243 9.243 0 0 1 2.254 5.048l.923.29 5.142-4.017Zm25.638 10.135a5.335 5.335 0 0 0-1.977-1.982 9.526 9.526 0 0 0-2.61-1.017 13.378 13.378 0 0 0-2.992-.317c-1.919-.027-3.827.3-5.629.965a12.226 12.226 0 0 0-4.165 2.55 13.832 13.832 0 0 0-2.742 3.738 17.76 17.76 0 0 0-1.569 4.427 23.095 23.095 0 0 0-.474 4.73c-.006 1.35.185 2.694.566 3.988.37 1.253.945 2.436 1.7 3.502a7.845 7.845 0 0 0 3.099 2.537 10.38 10.38 0 0 0 4.521.938c4.939 0 9.579-2.176 13.92-6.527l-.527-.767-.659-.158c-3.216 2.484-6.187 3.726-8.911 3.726a6.304 6.304 0 0 1-2.939-.674 5.928 5.928 0 0 1-2.099-1.743 10.563 10.563 0 0 1-1.332-2.458 13.181 13.181 0 0 1-.751-2.708c-.14-.874-.21-1.758-.211-2.643a20.85 20.85 0 0 1 .29-3.356c.207-1.235.516-2.45.923-3.634a7.597 7.597 0 0 1 1.872-3.066 4.041 4.041 0 0 1 2.9-1.202 3.878 3.878 0 0 1 3.585 1.956 9.276 9.276 0 0 1 1.16 4.81l.923.37 4.983-2.96a6.701 6.701 0 0 0-.855-3.025Zm9.663 7.862c.134-1.038.368-2.06.699-3.052.303-.965.733-1.884 1.278-2.735a6.119 6.119 0 0 1 2.044-1.916 5.628 5.628 0 0 1 2.913-.753 5.818 5.818 0 0 1 3.15.832 5.495 5.495 0 0 1 2.043 2.273c.477.967.822 1.993 1.027 3.052.217 1.14.324 2.3.317 3.462 0 1.057-.009 1.938-.027 2.642a32.146 32.146 0 0 1-.184 2.538 15.27 15.27 0 0 1-.435 2.457c-.207.71-.476 1.4-.804 2.062a5.178 5.178 0 0 1-1.279 1.717 6.324 6.324 0 0 1-1.872 1.057 7.254 7.254 0 0 1-2.57.423 4.677 4.677 0 0 1-2.703-.82 6.06 6.06 0 0 1-1.884-2.021 12.474 12.474 0 0 1-1.134-2.761 18.328 18.328 0 0 1-.607-2.895 21.955 21.955 0 0 1-.158-2.55 24.262 24.262 0 0 1 .186-3.012Zm-3.269 13.663c1.915 1.744 4.956 2.616 9.122 2.616 1.54.01 3.076-.167 4.574-.53a13.499 13.499 0 0 0 3.978-1.703 11.784 11.784 0 0 0 3.177-2.947 13.762 13.762 0 0 0 2.083-4.387 20.91 20.91 0 0 0 .765-5.866 11.003 11.003 0 0 0-3.612-8.51c-2.198-1.972-5.388-2.96-9.57-2.96-4.183 0-7.628 1.296-10.335 3.886a12.973 12.973 0 0 0-4.06 9.804c0 4.722 1.291 8.254 3.875 10.597h.003Zm41.258-20.93c1.406 0 2.408.282 3.006.846.557.68.909 1.506 1.014 2.38.221 1.03.358 2.078.409 3.13.035.926.053 2.12.053 3.582a450.47 450.47 0 0 1-.039 5.695c-.009.572-.005 1.246.012 2.022.005.578.04 1.156.106 1.73.053.38.123.794.211 1.242.061.376.186.737.369 1.07.158.265.352.506.578.715a4.083 4.083 0 0 0 2.899 1.056c1.319 0 2.83-.67 4.535-2.008a49.653 49.653 0 0 0 4.06-3.78l-.606-.9h-.633a6.428 6.428 0 0 1-3.611 1.4 2.065 2.065 0 0 1-1.53-.554 2.052 2.052 0 0 1-.462-.514 3.798 3.798 0 0 1-.276-1.084 15.327 15.327 0 0 1-.132-2.286c0-.581.031-1.52.092-2.814.049-.92.08-1.84.093-2.762v-1.586c.017-1.71.013-2.893-.013-3.555a25.134 25.134 0 0 0-.304-2.695 4.911 4.911 0 0 0-.817-2.352 5.485 5.485 0 0 0-1.635-1.215 5.733 5.733 0 0 0-2.689-.57c-3.093 0-6.679 1.27-10.756 3.807l-.633-.238a5.015 5.015 0 0 0-.909-2.708c-.519-.68-1.411-1.018-2.676-1.018a7.2 7.2 0 0 0-2.228.383c-.835.28-1.632.662-2.374 1.136-.8.503-1.494.97-2.083 1.4-.589.432-1.27.956-2.043 1.573l.975 1.295c.179-.116.36-.23.541-.343.307-.194.575-.352.804-.476.228-.123.501-.268.817-.436.283-.154.579-.283.884-.386.233-.08.477-.125.724-.132.305-.007.606.07.87.225.268.177.47.437.578.74.132.32.246.645.342.977.108.447.17.903.185 1.362.036.6.057 1.084.064 1.453.008.369.012.924.013 1.665v.45c0 1.726-.132 7.01-.395 15.855l.659.37 5.932-1.718c-.176-.757-.308-3.144-.396-7.16-.087-3.928-.13-7.858-.128-11.787 3.058-1.656 5.237-2.484 6.538-2.484l.005.002Zm25.573 9.01a.698.698 0 0 1-.158.028c-.263 0-.395-.097-.396-.29.001-.877.067-1.751.199-2.617a13.6 13.6 0 0 1 .737-2.762c.331-.903.783-1.757 1.345-2.537a6.33 6.33 0 0 1 5.128-2.524 4.135 4.135 0 0 1 3.664 1.824 7.247 7.247 0 0 1 1.239 4.175 1.34 1.34 0 0 1-.883 1.242 43.15 43.15 0 0 1-4.415 1.507c-2.107.62-4.208 1.263-6.301 1.93a.79.79 0 0 0-.158.025h-.001v-.001Zm15.66 8.246c-3.165 1.92-5.898 2.88-8.199 2.88a7.504 7.504 0 0 1-4.377-1.294 7.833 7.833 0 0 1-2.754-3.237 10.001 10.001 0 0 1-.884-4.19c11.495-3.575 17.295-5.363 17.401-5.363a1.95 1.95 0 0 0 1.555-2.009 7.543 7.543 0 0 0-.883-3.726 6.445 6.445 0 0 0-2.386-2.471 11.564 11.564 0 0 0-3.256-1.295 16.617 16.617 0 0 0-3.786-.41 15.958 15.958 0 0 0-6.64 1.335 12.734 12.734 0 0 0-4.758 3.568 16.208 16.208 0 0 0-2.755 5.02 17.928 17.928 0 0 0-.949 5.828c0 4.07 1.098 7.117 3.295 9.144 1.986 1.85 4.789 2.774 8.41 2.774a13.572 13.572 0 0 0 5.972-1.453 46.176 46.176 0 0 0 6.393-3.86l-.577-1.028-.822-.213Z" fill="#9C9C9C"/></g><defs><clipPath id="a"><path fill="#fff" d="M0 0h208v41H0z"/></clipPath></defs></svg>
